icons/AndroidColor.svg

<svg width="16" height="16" viewBox="0 0 16 16" fill="none" xmlns="http://www.w3.org/2000/svg">
<path d="M11.6883 9.13551C11.556 9.13551 11.4267 9.09629 11.3168 9.02281C11.2068 8.94934 11.1211 8.8449 11.0705 8.72271C11.0199 8.60052 11.0066 8.46607 11.0324 8.33636C11.0582 8.20664 11.1219 8.08749 11.2155 7.99397C11.309 7.90045 11.4281 7.83676 11.5578 7.81096C11.6875 7.78516 11.822 7.7984 11.9442 7.84902C12.0664 7.89963 12.1708 7.98534 12.2443 8.0953C12.3178 8.20527 12.357 8.33456 12.357 8.46681C12.357 8.64416 12.2865 8.81425 12.1611 8.93965C12.0357 9.06506 11.8656 9.13551 11.6883 9.13551ZM4.32564 9.13551C4.19339 9.13551 4.0641 9.09629 3.95413 9.02281C3.84416 8.94934 3.75846 8.8449 3.70784 8.72271C3.65723 8.60052 3.64399 8.46607 3.66979 8.33636C3.69559 8.20664 3.75928 8.08749 3.8528 7.99397C3.94632 7.90045 4.06547 7.83676 4.19519 7.81096C4.3249 7.78516 4.45935 7.7984 4.58154 7.84902C4.70373 7.89963 4.80817 7.98534 4.88164 8.0953C4.95512 8.20527 4.99434 8.33456 4.99434 8.46681C4.99434 8.64416 4.92389 8.81425 4.79848 8.93965C4.67308 9.06506 4.50299 9.13551 4.32564 9.13551ZM11.9251 5.12332L13.2625 2.8177C13.2806 2.78613 13.2922 2.75131 13.2967 2.71523C13.3013 2.67915 13.2987 2.64253 13.289 2.60747C13.2794 2.57241 13.2629 2.5396 13.2405 2.51093C13.2182 2.48226 13.1903 2.45828 13.1587 2.44039C13.127 2.4225 13.0922 2.41104 13.0561 2.40666C13.02 2.40229 12.9834 2.40509 12.9483 2.41491C12.9133 2.42473 12.8806 2.44137 12.852 2.46387C12.8235 2.48637 12.7996 2.5143 12.7819 2.54604L11.4306 4.87952C10.3573 4.38907 9.19046 4.13717 8.01045 4.14117C6.82906 4.13828 5.66066 4.38763 4.58337 4.87256L3.23204 2.53908C3.19582 2.47572 3.13599 2.42928 3.06562 2.40992C2.99526 2.39056 2.92009 2.39985 2.85655 2.43576C2.79302 2.47167 2.74629 2.53128 2.72659 2.60155C2.70689 2.67182 2.71581 2.74703 2.75142 2.81074L4.08185 5.11635C2.9315 5.74374 1.9558 6.64812 1.24307 7.74762C0.53034 8.84712 0.103091 10.107 0 11.4133H16C15.9001 10.1079 15.4748 8.84845 14.763 7.74973C14.0512 6.65101 13.0756 5.74807 11.9251 5.12332Z" fill="#3DDC84"/>
</svg>

<svg width="16" height="16" fill="none" xmlns="http://www.w3.org/2000/svg"><path d="M11.688 9.136a.668.668 0 1 1 0-1.337.668.668 0 0 1 0 1.337zm-7.362 0a.669.669 0 1 1 0-1.338.669.669 0 0 1 0 1.338zm7.6-4.013 1.336-2.305a.274.274 0 0 0-.021-.307.276.276 0 0 0-.46.035l-1.35 2.334a8.162 8.162 0 0 0-3.42-.739 8.3 8.3 0 0 0-3.428.732L3.232 2.539a.276.276 0 0 0-.48.272l1.33 2.305A7.879 7.879 0 0 0 0 11.413h16a7.838 7.838 0 0 0-4.075-6.29" fill="#3DDC84"/></svg>
